(Projekt AnywhereAmps_Alpha_A4APR-Designmaster_top_xy)
(Erstellt mit Estlcam Version 11 Build 11,244)
(Laufzeit ca. 00:04:22 Stunden)

(Benoetigte Werkzeuge:)
(L1S.0200.12)
(FSH062.0600.21)

G90
T3 M06
M03 S24000
G00 Z10.0000


(Nr. 1: Bohrung 1)
G00 X41.8920 Y188.4387
G00 Z0.5000
G01 Z-1.0000 F600 S24000
G00 Z0.5000
G00 Z-0.5000
G01 Z-2.0000
G00 Z0.5000
G00 Z-1.5000
G01 Z-3.0000
G00 Z0.5000
G00 Z-2.5000
G01 Z-4.0000
G00 Z0.5000
G00 Z-3.5000
G01 Z-5.0000
G00 Z0.5000
G00 Z-4.5000
G01 Z-6.0000
G00 Z0.5000
G00 Z-5.5000
G01 Z-7.0000
G00 Z0.5000
G00 Z-6.5000
G01 Z-8.0000
G00 Z10.0000


(Nr. 2: Bohrung 2)
G00 X114.5000 Y156.2500 Z10.0000
G00 Z0.5000
G01 Z-1.0000 F600
G00 Z0.5000
G00 Z-0.5000
G01 Z-2.0000
G00 Z0.5000
G00 Z-1.5000
G01 Z-3.0000
G00 Z0.5000
G00 Z-2.5000
G01 Z-4.0000
G00 Z0.5000
G00 Z-3.5000
G01 Z-5.0000
G00 Z0.5000
G00 Z-4.5000
G01 Z-6.0000
G00 Z0.5000
G00 Z-5.5000
G01 Z-7.0000
G00 Z0.5000
G00 Z-6.5000
G01 Z-8.0000
G00 Z10.0000


(Nr. 3: Bohrung 7)
G00 X190.5000 Y156.2500 Z10.0000
G00 Z0.5000
G01 Z-1.0000 F600
G00 Z0.5000
G00 Z-0.5000
G01 Z-2.0000
G00 Z0.5000
G00 Z-1.5000
G01 Z-3.0000
G00 Z0.5000
G00 Z-2.5000
G01 Z-4.0000
G00 Z0.5000
G00 Z-3.5000
G01 Z-5.0000
G00 Z0.5000
G00 Z-4.5000
G01 Z-6.0000
G00 Z0.5000
G00 Z-5.5000
G01 Z-7.0000
G00 Z0.5000
G00 Z-6.5000
G01 Z-8.0000
G00 Z10.0000


(Nr. 4: Bohrung 8)
G00 X263.1080 Y188.4387 Z10.0000
G00 Z0.5000
G01 Z-1.0000 F600
G00 Z0.5000
G00 Z-0.5000
G01 Z-2.0000
G00 Z0.5000
G00 Z-1.5000
G01 Z-3.0000
G00 Z0.5000
G00 Z-2.5000
G01 Z-4.0000
G00 Z0.5000
G00 Z-3.5000
G01 Z-5.0000
G00 Z0.5000
G00 Z-4.5000
G01 Z-6.0000
G00 Z0.5000
G00 Z-5.5000
G01 Z-7.0000
G00 Z0.5000
G00 Z-6.5000
G01 Z-8.0000
G00 Z10.0000


(Nr. 5: Bohrung 6)
G00 X220.8594 Y58.4113 Z10.0000
G00 Z0.5000
G01 Z-1.0000 F600
G00 Z0.5000
G00 Z-0.5000
G01 Z-2.0000
G00 Z0.5000
G00 Z-1.5000
G01 Z-3.0000
G00 Z0.5000
G00 Z-2.5000
G01 Z-4.0000
G00 Z0.5000
G00 Z-3.5000
G01 Z-5.0000
G00 Z0.5000
G00 Z-4.5000
G01 Z-6.0000
G00 Z0.5000
G00 Z-5.5000
G01 Z-7.0000
G00 Z0.5000
G00 Z-6.5000
G01 Z-8.0000
G00 Z10.0000


(Nr. 6: Bohrung 5)
G00 X190.5000 Y28.2500 Z10.0000
G00 Z0.5000
G01 Z-1.0000 F600
G00 Z0.5000
G00 Z-0.5000
G01 Z-2.0000
G00 Z0.5000
G00 Z-1.5000
G01 Z-3.0000
G00 Z0.5000
G00 Z-2.5000
G01 Z-4.0000
G00 Z0.5000
G00 Z-3.5000
G01 Z-5.0000
G00 Z0.5000
G00 Z-4.5000
G01 Z-6.0000
G00 Z0.5000
G00 Z-5.5000
G01 Z-7.0000
G00 Z0.5000
G00 Z-6.5000
G01 Z-8.0000
G00 Z10.0000


(Nr. 7: Bohrung 4)
G00 X114.5000 Y28.2500 Z10.0000
G00 Z0.5000
G01 Z-1.0000 F600
G00 Z0.5000
G00 Z-0.5000
G01 Z-2.0000
G00 Z0.5000
G00 Z-1.5000
G01 Z-3.0000
G00 Z0.5000
G00 Z-2.5000
G01 Z-4.0000
G00 Z0.5000
G00 Z-3.5000
G01 Z-5.0000
G00 Z0.5000
G00 Z-4.5000
G01 Z-6.0000
G00 Z0.5000
G00 Z-5.5000
G01 Z-7.0000
G00 Z0.5000
G00 Z-6.5000
G01 Z-8.0000
G00 Z10.0000


(Nr. 8: Bohrung 3)
G00 X84.1406 Y58.4113 Z10.0000
G00 Z0.5000
G01 Z-1.0000 F600
G00 Z0.5000
G00 Z-0.5000
G01 Z-2.0000
G00 Z0.5000
G00 Z-1.5000
G01 Z-3.0000
G00 Z0.5000
G00 Z-2.5000
G01 Z-4.0000
G00 Z0.5000
G00 Z-3.5000
G01 Z-5.0000
G00 Z0.5000
G00 Z-4.5000
G01 Z-6.0000
G00 Z0.5000
G00 Z-5.5000
G01 Z-7.0000
G00 Z0.5000
G00 Z-6.5000
G01 Z-8.0000
G00 Z10.0000


(Nr. 9: Kreisloch)
M05
T2 M06 (Wechsle Werkzeug: FSH062.0600.21)
M03 S24000
G00 X145.1950 Y110.4764 Z10.0000
G00 Z0.5000
G01 Z0.0000 F1200
G01 Z-4.1000
G03 X146.2525 Y41.8149 I7.3021 J-34.2264 F2600
G03 X160.1560 Y42.1003 I6.2503 J34.3156
G03 X159.1007 Y110.6193 I-7.6532 J34.1498
G03 X145.1950 Y110.4764 I-6.6016 J-34.2525
G01 Z-8.2000 F1200
G03 X146.2525 Y41.8149 I7.3021 J-34.2264 F2600
G03 X160.1560 Y42.1003 I6.2503 J34.3156
G03 X159.1007 Y110.6193 I-7.6532 J34.1498
G03 X145.1950 Y110.4764 I-6.6016 J-34.2525
G01 Z-12.0500 F1200
G03 X146.2525 Y41.8149 I7.3021 J-34.2264 F2600
G00 Z-10.0500
G03 X160.1560 Y42.1003 I6.2503 J34.3156
G01 Z-12.0500 F1200
G03 X159.1007 Y110.6193 I-7.6532 J34.1498 F2600
G00 Z-10.0500
G03 X145.1950 Y110.4764 I-6.6016 J-34.2525
G00 Z10.0000


(Nr. 10: Bohrung 9)
G00 X152.5000 Y292.8000 Z10.0000
G00 Z0.5000
G01 Z-4.1000 F1200
G00 Z0.5000
G00 Z-3.6000
G01 Z-8.0000
G00 Z10.0000


(Nr. 11: Fase)
G00 X153.2896 Y301.7938 Z10.0000
G00 Z0.5000
G01 Z0.0000 F1200
G01 Z-4.0000
G02 X281.3998 Y77.1651 I-0.7896 J-149.2966 F2600
G02 X22.8105 Y78.5328 I-128.8998 J75.3322
G02 X153.2896 Y301.7938 I129.6895 J73.9645
G00 Z10.0000


(Nr. 12: Freistellen)
G00 X161.2757 Y307.7482 Z10.0000
G00 Z0.5000
G01 Z0.0000 F1200
G01 Z-4.1000
G02 X282.5631 Y67.2717 I-8.7758 J-155.2509 F2600
G02 X13.6607 Y82.4719 I-130.0633 J85.2255
G02 X161.2757 Y307.7482 I138.8391 J70.0254
G01 Z-8.2000 F1200
G02 X282.5631 Y67.2717 I-8.7758 J-155.2509 F2600
G02 X13.6607 Y82.4719 I-130.0633 J85.2255
G02 X161.2757 Y307.7482 I138.8391 J70.0254
G01 Z-12.0500 F1200
G02 X282.5631 Y67.2717 I-8.7758 J-155.2509 F2600
G02 X13.6607 Y82.4719 I-130.0633 J85.2255
G02 X161.2757 Y307.7482 I138.8391 J70.0254
G00 Z10.0000
G00 X0.0000 Y0.0000

M05
M30
