(Projekt AnywhereAmps_Logo_Stamp)
(Erstellt mit Estlcam Version 11 Build 11,244)
(Laufzeit ca. 00:02:51 Stunden)

(Benoetigte Werkzeuge:)
(FSH032.0200.10H20)
(FEF013.1000.0600.030)
(FSH062.0600.21)

G90
T1 M06
M03 S24000
G00 Z10.0000


(Nr. 1: Ausschnitt 12)
G00 X34.0357 Y71.4269
G00 Z0.5000
G01 Z0.0000 F600 S24000
G01 Z-1.0000
G01 X39.4302 F1200
G01 X39.9288 Y73.2269
G01 X35.6456
G01 X37.2554 Y75.0269
G01 X40.4168
G01 X40.8918 Y76.8269
G01 X38.8653
G01 X40.4752 Y78.6269
G01 X41.3470
G01 X41.5209 Y78.4972
G03 X41.9603 Y80.3971 I-54.8098 J13.6759
G03 X40.7403 Y79.2232 I11.4263 J-13.0966
G01 X32.4939 Y70.0030
G01 X39.3279 Y70.3229
G03 X41.5209 Y78.4972 I-270.7141 J77.0103
G01 X41.3470 Y78.6269
G01 Z-2.0000 F600
G01 X40.4752 F1200
G01 X40.8918 Y76.8269
G01 X38.8653
G01 X40.4168 Y75.0269
G01 X37.2554
G01 X35.6456 Y73.2269
G01 X39.9288
G01 X39.4302 Y71.4269
G01 X34.0357
G01 X33.8917 Y71.5659
G01 X32.4939 Y70.0030
G01 X39.3279 Y70.3229
G03 X41.9603 Y80.3971 I-192.4009 J55.6559
G03 X40.7403 Y79.2232 I11.4263 J-13.0966
G01 X33.8917 Y71.5659
G01 X34.0357 Y71.4269
G01 Z-3.0000 F600
G01 X39.4302 F1200
G01 X39.9288 Y73.2269
G01 X35.6456
G01 X37.2554 Y75.0269
G01 X40.4168
G01 X40.8918 Y76.8269
G01 X38.8653
G01 X40.4752 Y78.6269
G01 X41.3470
G01 X41.5209 Y78.4972
G03 X41.9603 Y80.3971 I-54.8098 J13.6759
G03 X40.7403 Y79.2232 I11.4263 J-13.0966
G01 X32.4939 Y70.0030
G01 X39.3279 Y70.3229
G03 X41.5209 Y78.4972 I-270.7141 J77.0103
G01 X41.3470 Y78.6269
G01 Z-4.0000 F600
G01 X40.4752 F1200
G01 X40.8918 Y76.8269
G01 X38.8653
G01 X40.4168 Y75.0269
G01 X37.2554
G01 X35.6456 Y73.2269
G01 X39.9288
G01 X39.4302 Y71.4269
G01 X34.0357
G01 X33.8917 Y71.5659
G01 X32.4939 Y70.0030
G01 X39.3279 Y70.3229
G03 X41.9603 Y80.3971 I-192.4009 J55.6559
G03 X40.7403 Y79.2232 I11.4263 J-13.0966
G01 X33.8917 Y71.5659
G01 X34.0357 Y71.4269
G00 Z10.0000


(Nr. 2: Ausschnitt 14)
G00 X36.5028 Y62.2530 Z10.0000
G00 Z0.5000
G01 Z0.0000 F600
G01 Z-1.0000
G01 X25.7436 F1200
G01 X24.3335 Y60.4530
G01 X36.0264
G01 X35.5501 Y58.6530
G01 X22.9233
G01 X21.5131 Y56.8530
G01 X35.0737
G01 X34.5973 Y55.0530
G01 X20.1030
G01 X18.6928 Y53.2530
G01 X34.1209
G01 X33.6445 Y51.4530
G01 X17.2826
G01 Y49.6530
G01 X33.6445
G01 X34.1209 Y47.8530
G01 X18.6928
G01 X20.1030 Y46.0530
G01 X34.5973
G01 X35.0737 Y44.2530
G01 X21.5131
G01 X22.9233 Y42.4530
G01 X35.5501
G01 X36.0264 Y40.6530
G01 X24.3335
G01 X25.7436 Y38.8530
G01 X36.5028
G01 X36.6925 Y38.9181
G01 X33.6809 Y50.2972
G02 Y50.8089 I0.9667 J0.2559
G01 X37.0126 Y63.3974
G01 X26.2815 Y63.2639
G01 X16.3235 Y50.5530
G01 X26.2815 Y37.8421
G01 X37.0126 Y37.7086
G01 X36.6925 Y38.9181
G01 X36.5028 Y38.8530
G01 Z-2.0000 F600
G01 X25.7436 F1200
G01 X24.3335 Y40.6530
G01 X36.0264
G01 X35.5501 Y42.4530
G01 X22.9233
G01 X21.5131 Y44.2530
G01 X35.0737
G01 X34.5973 Y46.0530
G01 X20.1030
G01 X18.6928 Y47.8530
G01 X34.1209
G01 X33.6445 Y49.6530
G01 X17.2826
G01 Y51.4530
G01 X33.6445
G01 X34.1209 Y53.2530
G01 X18.6928
G01 X20.1030 Y55.0530
G01 X34.5973
G01 X35.0737 Y56.8530
G01 X21.5131
G01 X22.9233 Y58.6530
G01 X35.5501
G01 X36.0264 Y60.4530
G01 X24.3335
G01 X25.7436 Y62.2530
G01 X36.5028
G01 X36.6925 Y62.1879
G01 X37.0126 Y63.3974
G01 X26.2815 Y63.2639
G01 X16.3235 Y50.5530
G01 X26.2815 Y37.8421
G01 X37.0126 Y37.7086
G01 X33.6809 Y50.2972
G02 Y50.8089 I0.9667 J0.2559
G01 X36.6925 Y62.1879
G01 X36.5028 Y62.2530
G01 Z-3.0000 F600
G01 X25.7436 F1200
G01 X24.3335 Y60.4530
G01 X36.0264
G01 X35.5501 Y58.6530
G01 X22.9233
G01 X21.5131 Y56.8530
G01 X35.0737
G01 X34.5973 Y55.0530
G01 X20.1030
G01 X18.6928 Y53.2530
G01 X34.1209
G01 X33.6445 Y51.4530
G01 X17.2826
G01 Y49.6530
G01 X33.6445
G01 X34.1209 Y47.8530
G01 X18.6928
G01 X20.1030 Y46.0530
G01 X34.5973
G01 X35.0737 Y44.2530
G01 X21.5131
G01 X22.9233 Y42.4530
G01 X35.5501
G01 X36.0264 Y40.6530
G01 X24.3335
G01 X25.7436 Y38.8530
G01 X36.5028
G01 X36.6925 Y38.9181
G01 X33.6809 Y50.2972
G02 Y50.8089 I0.9667 J0.2559
G01 X37.0126 Y63.3974
G01 X26.2815 Y63.2639
G01 X16.3235 Y50.5530
G01 X26.2815 Y37.8421
G01 X37.0126 Y37.7086
G01 X36.6925 Y38.9181
G01 X36.5028 Y38.8530
G01 Z-4.0000 F600
G01 X25.7436 F1200
G01 X24.3335 Y40.6530
G01 X36.0264
G01 X35.5501 Y42.4530
G01 X22.9233
G01 X21.5131 Y44.2530
G01 X35.0737
G01 X34.5973 Y46.0530
G01 X20.1030
G01 X18.6928 Y47.8530
G01 X34.1209
G01 X33.6445 Y49.6530
G01 X17.2826
G01 Y51.4530
G01 X33.6445
G01 X34.1209 Y53.2530
G01 X18.6928
G01 X20.1030 Y55.0530
G01 X34.5973
G01 X35.0737 Y56.8530
G01 X21.5131
G01 X22.9233 Y58.6530
G01 X35.5501
G01 X36.0264 Y60.4530
G01 X24.3335
G01 X25.7436 Y62.2530
G01 X36.5028
G01 X36.6925 Y62.1879
G01 X37.0126 Y63.3974
G01 X26.2815 Y63.2639
G01 X16.3235 Y50.5530
G01 X26.2815 Y37.8421
G01 X37.0126 Y37.7086
G01 X33.6809 Y50.2972
G02 Y50.8089 I0.9667 J0.2559
G01 X36.6925 Y62.1879
G01 X36.5028 Y62.2530
G00 Z10.0000


(Nr. 3: Ausschnitt 13)
G00 X34.0365 Y29.6816 Z10.0000
G00 Z0.5000
G01 Z0.0000 F600
G01 Z-1.0000
G01 X39.4301 F1200
G01 X39.9286 Y27.8816
G01 X35.6460
G01 X37.2556 Y26.0816
G01 X40.4166
G01 X40.8916 Y24.2816
G01 X38.8652
G01 X40.4747 Y22.4816
G01 X41.3468
G01 X41.5208 Y22.6110
G03 X39.3267 Y30.7893 I-273.1948 J-68.9116
G01 X32.5019 Y31.1044
G01 X40.7403 Y21.8846
G03 X41.9596 Y20.7122 I12.3161 J11.5893
G03 X41.5208 Y22.6110 I-54.2126 J-11.5278
G01 X41.3468 Y22.4816
G01 Z-2.0000 F600
G01 X40.4747 F1200
G01 X40.8916 Y24.2816
G01 X38.8652
G01 X40.4166 Y26.0816
G01 X37.2556
G01 X35.6460 Y27.8816
G01 X39.9286
G01 X39.4301 Y29.6816
G01 X34.0365
G01 X33.8950 Y29.5454
G01 X40.7403 Y21.8846
G03 X41.9596 Y20.7122 I12.3161 J11.5893
G03 X39.5641 Y29.9451 I-186.7494 J-43.5251
G01 X39.4183 Y30.4644
G01 X39.3267 Y30.7893
G01 X32.5019 Y31.1044
G01 X33.8950 Y29.5454
G01 X34.0365 Y29.6816
G01 Z-3.0000 F600
G01 X39.4301 F1200
G01 X39.9286 Y27.8816
G01 X35.6460
G01 X37.2556 Y26.0816
G01 X40.4166
G01 X40.8916 Y24.2816
G01 X38.8652
G01 X40.4747 Y22.4816
G01 X41.3468
G01 X41.5208 Y22.6110
G03 X39.3267 Y30.7893 I-273.1948 J-68.9116
G01 X32.5019 Y31.1044
G01 X40.7403 Y21.8846
G03 X41.9596 Y20.7122 I12.3161 J11.5893
G03 X41.5208 Y22.6110 I-54.2126 J-11.5278
G01 X41.3468 Y22.4816
G01 Z-4.0000 F600
G01 X40.4747 F1200
G01 X40.8916 Y24.2816
G01 X38.8652
G01 X40.4166 Y26.0816
G01 X37.2556
G01 X35.6460 Y27.8816
G01 X39.9286
G01 X39.4301 Y29.6816
G01 X34.0365
G01 X33.8950 Y29.5454
G01 X40.7403 Y21.8846
G03 X41.9596 Y20.7122 I12.3161 J11.5893
G03 X39.5641 Y29.9451 I-186.7494 J-43.5251
G01 X39.4183 Y30.4644
G01 X39.3267 Y30.7893
G01 X32.5019 Y31.1044
G01 X33.8950 Y29.5454
G01 X34.0365 Y29.6816
G00 Z10.0000


(Nr. 4: Carve 1)
M05
T6 M06 (Wechsle Werkzeug: FEF013.1000.0600.030)
M03 S24000
G00 X30.2098 Y68.9176 Z10.0000
G01 Z-0.0365 F2000
G01 X31.2919 Y69.4319 Z-0.8398
G01 X31.3915 Y69.4516 Z-0.8660
G01 X39.6175 Y69.8314
G01 X39.7184 Y69.8245 Z-0.8461
G01 X40.0920 Y69.3528 Z0.0000
G01 X39.7330 Y69.8062 Z-0.8131
G01 X39.7339 Y69.9214 Z-0.8660
G01 X41.1997 Y75.2447
G01 X41.8771 Y77.8554
G01 X42.2309 Y79.3115
G01 X42.3774 Y79.9567
G01 X42.4975 Y80.5259
G01 X42.5727 Y80.9212
G01 X42.5867 Y81.0026
G01 X42.6323 Y81.3001
G01 X42.6401 Y81.3671
G01 X42.6487 Y81.4714
G01 X42.7021 Y81.5720 Z-0.7881
G01 X42.8041 Y81.7189 Z-0.5856
G01 X42.7420 Y81.6363 Z-0.7090
G01 X42.7267 Y81.6119 Z-0.7403
G01 X42.6516 Y81.5030 Z-0.8654
G01 X42.5410 Y81.4447 Z-0.8660
G01 X42.4663 Y81.4033
G01 X42.4223 Y81.3764
G01 X42.2638 Y81.2717
G01 X42.2053 Y81.2307
G01 X42.0413 Y81.1091
G01 X41.9747 Y81.0575
G01 X41.8089 Y80.9240
G01 X41.7382 Y80.8653
G01 X41.5743 Y80.7248
G01 X41.5028 Y80.6620
G01 X41.2747 Y80.4556
G01 X41.0600 Y80.2537
G01 X40.8645 Y80.0641
G01 X40.6815 Y79.8817
G01 X40.4879 Y79.6834
G01 X40.3801 Y79.5701
G01 X31.3645 Y69.4903
G01 X31.2843 Y69.4283 Z-0.8342
G01 X30.2094 Y68.9175 Z-0.0363
G01 X30.1606 Y68.8943 Z0.0000
G00 Z10.0000


(Nr. 5: Carve 2)
G00 X34.1771 Y50.3766 Z10.0000
G01 Z-0.8660 F2000
G01 X37.6402 Y37.2913
G01 X37.6705 Y37.1956 Z-0.8578
G01 X38.3160 Y36.6923 Z0.0000
G01 X37.6708 Y37.1954 Z-0.8574
G01 X37.5707 Y37.2016 Z-0.8660
G01 X26.0466 Y37.3450
G01 X25.9441 Y37.1600 Z-0.5433
G01 X25.7898 Y36.8482 Z0.0000
G01 X26.0292 Y37.3534 Z-0.8660
G01 X15.7244 Y50.5069
G01 X15.6210 Y50.5530 Z-0.7742
G01 X15.0531 Z0.0000
G01 X15.6210 Z-0.7742
G01 X15.7244 Y50.5991 Z-0.8660
G01 X26.0292 Y63.7526
G01 X25.9438 Y63.9465 Z-0.5424
G01 X25.7898 Y64.2578 Z0.0000
G01 X26.0466 Y63.7610 Z-0.8660
G01 X37.5707 Y63.9044
G01 X37.6708 Y63.9106 Z-0.8574
G01 X38.3160 Y64.4137 Z0.0000
G01 X37.6705 Y63.9104 Z-0.8578
G01 X37.6402 Y63.8147 Z-0.8660
G01 X34.1540 Y50.6327
G01 X34.1484 Y50.5807
G01 X34.1482 Y50.5284
G01 X34.1535 Y50.4763
G01 X34.1643 Y50.4251
G00 Z10.0000


(Nr. 6: Carve 3)
G00 X40.0387 Y31.6876 Z10.0000
G01 Z-0.1210 F2000
G01 X39.7184 Y31.2833 Z-0.8461
G01 X39.6175 Y31.2764 Z-0.8660
G01 X31.3915 Y31.6562
G01 X31.2919 Y31.6760 Z-0.8398
G01 X30.1606 Y32.2136 Z0.0000
G01 X31.2843 Y31.6796 Z-0.8342
G01 X31.3645 Y31.6175 Z-0.8660
G01 X40.5447 Y21.3657
G01 X40.7448 Y21.1626
G01 X40.9237 Y20.9858
G01 X41.1255 Y20.7918
G01 X41.2747 Y20.6523
G01 X41.3444 Y20.5884
G01 X41.5028 Y20.4458
G01 X41.5743 Y20.3831
G01 X41.7382 Y20.2426
G01 X41.8089 Y20.1839
G01 X41.9747 Y20.0503
G01 X42.0413 Y19.9988
G01 X42.2053 Y19.8772
G01 X42.2638 Y19.8362
G01 X42.4223 Y19.7314
G01 X42.4663 Y19.7045
G01 X42.6157 Y19.6216
G01 X42.7267 Y19.4959 Z-0.7403
G01 X42.8900 Y19.2057 Z-0.2600
G01 X42.8458 Y19.3242 Z-0.4717
G01 X42.8931 Y19.3631 Z-0.4274
G01 X42.8041 Y19.3890 Z-0.5856
G01 X42.7155 Y19.5148 Z-0.7632
G01 X42.6487 Y19.6364 Z-0.8660
G01 X42.6401 Y19.7407
G01 X42.6323 Y19.8077
G01 X42.5867 Y20.1053
G01 X42.5727 Y20.1867
G01 X42.4800 Y20.6689
G01 X42.3581 Y21.2387
G01 X42.1851 Y21.9897
G01 X41.8536 Y23.3460
G01 X41.0635 Y26.3723
G01 X39.7339 Y31.1864
G01 X39.7330 Y31.3017 Z-0.8131
G01 X40.0533 Y31.7061 Z-0.0878
G01 X40.0920 Y31.7551 Z0.0000
G00 Z10.0000


(Nr. 7: Teil 12)
M05
T2 M06 (Wechsle Werkzeug: FSH062.0600.21)
M03 S24000
G00 X46.2556 Y33.8000 Z10.0000
G00 Z0.5000
G01 Z0.0000 F1200
G01 Z-4.0000
G01 X62.4000 F2600
G01 Y28.4000
G01 X47.2140
G01 X48.1688 Y23.0000
G01 X62.4000
G01 Y17.6000
G01 X49.1171
G01 X50.0282 Y12.2000
G01 X62.4000
G01 Y6.8000
G01 X-2.4000
G01 Y12.2000
G01 X39.3692
G01 X34.3494 Y17.6000
G01 X-2.4000
G01 Y23.0000
G01 X29.3296
G01 X24.3097 Y28.4000
G01 X-2.4000
G01 Y33.8000
G01 X19.2899
G01 X14.2701 Y39.2000
G01 X-2.4000
G01 Y44.6000
G01 X9.2502
G01 X5.1483
G01 Y50.0000
G01 X-2.4000
G01 Y55.4000
G01 X8.3770
G01 X13.3728 Y60.8000
G01 X-2.4000
G01 Y66.2000
G01 X18.3686
G01 X23.3644 Y71.6000
G01 X-2.4000
G01 Y77.0000
G01 X28.3602
G01 X33.3560 Y82.4000
G01 X-2.4000
G01 Y87.8000
G01 X38.3518
G01 X43.7560 Y93.2000
G01 X-2.4000
G01 X-1.9322 Y98.6000
G01 X61.9322
G01 X62.4000 Y93.2000
G01 X48.3991
G01 X49.8557
G01 Y87.8000
G01 X62.4000
G01 Y82.4000
G01 X48.9221
G01 X47.9710 Y77.0000
G01 X62.4000
G01 Y71.6000
G01 X47.0140
G01 X46.0538 Y66.2000
G01 X62.4000
G01 Y60.8000
G01 X45.0914
G01 X44.1272 Y55.4000
G01 X62.4000
G01 Y50.0000
G01 X43.3680
G01 X44.3322 Y44.6000
G01 X62.4000
G01 Y39.2000
G01 X45.2948
G01 X44.6879 Y39.1858
G01 X44.8475 Y38.2900
G01 X45.3226 Y35.6205
G01 X45.8105 Y32.8759
G02 X49.4047 Y12.3434 I-1758.6904 J-318.4408
G02 X49.0955 Y9.6192 I-4.4673 J-0.8726
G02 X45.0341 Y7.9672 I-2.9802 J1.5083
G02 X42.9371 Y9.2813 I1.9968 J5.5168
G02 X41.3262 Y10.9761 I12.9949 J13.9646
G01 X6.5173 Y48.4211
G02 X6.5124 Y52.5010 I2.1973 J2.0426
G01 X41.3239 Y90.1290
G02 X43.9338 Y92.6068 I10.2808 J-8.2155
G02 X46.0085 Y93.3128 I2.2982 J-3.3523
G02 X49.3606 Y90.7481 I0.1465 J-3.2816
G02 X49.4300 Y88.9568 I-4.7089 J-1.0794
G02 X46.2859 Y70.9310 I-1598.8676 J269.5947
G01 X45.7913 Y68.1492
G01 X45.3006 Y65.3923
G01 X44.8227 Y62.7108
G01 X44.3669 Y60.1553
G01 X43.9422 Y57.7765
G01 X43.5578 Y55.6248
G01 X43.2229 Y53.7508
G01 X42.9464 Y52.2052
G01 X42.7377 Y51.0385
G01 X42.7359 Y51.0286
G01 X42.6566 Y50.5858
G03 X43.9722 Y43.2020 I6029.9380 J1070.5060
G01 X44.3943 Y40.8339
G01 X44.6879 Y39.1858
G01 X45.2948 Y39.2000
G00 Z10.0000
G00 X61.9322 Y6.8000
G00 Z0.5000
G01 Z-4.0000 F1200
G01 Y1.4000 F2600
G01 X-1.9322
G01 X-2.4832 Y1.1641
G02 X-3.0000 Y3.6686 I6.2343 J2.5921
G01 Y96.3314
G02 X3.6686 Y103.0000 I6.7489 J-0.0803
G01 X56.3314
G02 X63.0000 Y96.3314 I-0.0803 J-6.7489
G01 Y3.6686
G02 X56.3314 Y-3.0000 I-6.7489 J0.0803
G01 X3.6686
G02 X-2.4832 Y1.1641 I0.0782 J6.7417
G01 X-1.9322 Y1.4000
G00 Z10.0000


(Nr. 8: Teil 13)
G00 X22.0000 Y-3.0000 Z10.0000
G00 Z0.5000
G01 Z0.0000 F1200
G01 Z-4.1000
G01 X3.6686 F2600
G02 X-3.0000 Y3.6686 I0.0803 J6.7489
G01 Y42.0000
G01 Y58.0000
G01 Y96.3314
G02 X3.6686 Y103.0000 I6.7489 J-0.0803
G01 X22.0000
G01 X38.0000
G01 X56.3314
G02 X63.0000 Y96.3314 I-0.0803 J-6.7489
G01 Y58.5712
G01 Y42.5712
G01 Y3.6686
G02 X56.3314 Y-3.0000 I-6.7489 J0.0803
G01 X38.0000
G01 X22.0000
G01 Z-8.2000 F1200
G01 X3.6686 F2600
G02 X-3.0000 Y3.6686 I0.0803 J6.7489
G01 Y42.0000
G01 Y58.0000
G01 Y96.3314
G02 X3.6686 Y103.0000 I6.7489 J-0.0803
G01 X22.0000
G01 X38.0000
G01 X56.3314
G02 X63.0000 Y96.3314 I-0.0803 J-6.7489
G01 Y58.5712
G01 Y42.5712
G01 Y3.6686
G02 X56.3314 Y-3.0000 I-6.7489 J0.0803
G01 X38.0000
G01 X22.0000
G01 Z-12.0000 F1200
G01 X3.6686 F2600
G02 X-3.0000 Y3.6686 I0.0803 J6.7489
G01 Y42.0000
G00 Z-10.0000
G01 Y58.0000
G01 Z-12.0000 F1200
G01 Y96.3314 F2600
G02 X3.6686 Y103.0000 I6.7489 J-0.0803
G01 X22.0000
G00 Z-10.0000
G01 X38.0000
G01 Z-12.0000 F1200
G01 X56.3314 F2600
G02 X63.0000 Y96.3314 I-0.0803 J-6.7489
G01 Y58.5712
G00 Z-10.0000
G01 Y42.5712
G01 Z-12.0000 F1200
G01 Y3.6686 F2600
G02 X56.3314 Y-3.0000 I-6.7489 J0.0803
G01 X38.0000
G00 Z-10.0000
G01 X22.0000
G00 Z10.0000
G00 X0.0000 Y0.0000

M05
M30
